X:1
T:Prelude in E
T:Prelude in E
T:Manuel M. Ponce 
C:Manuel M. Ponce
%%score ( 1 2 )
L:1/8
M:3/4
K:E
V:1 treble-8 nm="Classical Guitar" snm="Guit."
V:2 treble-8 
V:1
!mf! z !4!b b!2!e !4!f!1!B | !2!e(!3!c/B/) !4!AG FA | !1!G!2!E/G/ B(!2!E/!4!F/) !1!AE/G/ | %3
 B(!2!E/F/) (G/A/)B EF |"^IV" CG cd B,!0!e |!<(! A,!3!c/!0!e/ !4!fc/!2!e/!<)!"^IV" g!3!c/!0!e/ | %6
!f!"^II" [Aca](!2!e/!1!d/)!>(! (!3!c/!1!B/)!4!A ed!>)! |!>(! (cB) AG F!mf!A!>)! | Gb be fB | %9
 !4!e(d/c/) B!3!^A !1!G!4!F | !0!B(!1!B/c/) (d/e/)f Bc |"^IV" de fB cd | !0!e(^A/B/) (c/d/)e AB | %13
 [^Ac]d !open!e!2!^^F !3!D!4!c |"^IV" B4 z2 | z B Bd ce | !4!d(G/^A/) (B/c/)d GA | %17
 B!<(!c!<)! =dc ^EG |!f!"^II" AF, F,C (B,=D) | FA Ac B=d | cF/A/ cF/G/ BF/A/ | %21
"^II" cF, F,F/A/ ^dG/c/ |"^IV" !2!eC CG/c/ eF |"^II" eB, B,F/B/ dE | dA, A,E/A/ !2!cD | %25
 c!4!G,"^I" G,D/G/ ^BG, | z !4!c' c'(!1!f !4!g)!2!d | !0!e(g/f/) (e/d/)c gf | ec B^A F,e | %29
 B,F (F=D) EC | =D(B,/C/) (D/E/)F Bc | !2!=d!2!e f!1!g !1!ab | !1!!4![e=c']A, A,[ec'] A,[ec'] | %33
 [f=c']=D D[fc'] D[fc'] | [=d_b]=G G[db] G[db] | [e_b]C C[eb] C[ea] | [ea]F F[=da] F[ea] | %37
 [=da]B, B,[da] B,[d=g] | [=d=g]E E[cg] E[dg] | [c=g]^A, A,[cf] A,[ce] | [Be]B, B,[B^d] B,[Ad] | %41
!f! !arpeggio![E=GBe]E, E,(E/F/) (G/A/)B | EF =GA B=c | !arpeggio![=G=d=g]B, B,(G/A/) (B/=c/)d | %44
 =GA B!3!=c"^III" =d=f | =C=c/e/ =gc/=d/ =fc/e/ | =g=C C[=Ge] B,[Ge] | %47
 A,(A/B/) (=c/=d/)e !4!A(!1!B | !1!=c)=d ef =ga |"^1/2 VII" E,e/=g/ be/f/ ae/g/ | %50
 bE, E,[B=g] =D[Bg] | [A=g]=C C[A=f] C[Af] | [Ae]=C C[=Ge] B,[Ge] | %53
 !4![=ce]A, A,[=Ge]"^rit." ^A,[Ge] | B,F/B/ e/^d/e (f/^g/)a |!mf!"^a tempo""^i" (gb) be fB | %56
 e(c/B/) AG FA | GE/G/ B(E/F/) AE/G/ | B(E/F/) (G/A/)B EF | CB cA cG | F!4!c' c'(!2!f !4!g)!1!c | %61
 !2!f(!2!=d/c/) BA GB | F,F/A/ cF/G/ BF/A/ | c"_m"((!1!F/!1!G/)) (!2!A/!4!B/)!1!c !4!F!1!G | %64
 AB ce dB | !1!G,[Be] [Be]G, !2![de]G, | A,[ce] [ce]A, [cf]A, | B,[dg] [dg]B, [fg]B, | %68
 C[eg] [eg]C [ea]C | D[fb] [fb]D [ab]D |"^VII" (3Egb (3Agc' (3dfc' | (3Df^a (3Gfb (3ceb | %72
 (3Ceg (3Fea (3Bda | (3Edg (3A,ce (3B,Fe | [E,GBe]!4!b b!2!e !4!f!1!B | !0!eE/G/ B((E/F/)) AE/G/ | %76
 B(((!2!E/F/))) ((G/A/))B EF | GA Bc =dB | c(A/B/) (c/=d/)e AB | c=d ef ge | f(B/c/) (^d/e/)f Bc | %81
 de fg af | ge Be =de | ce Ae ce | Be F/B/e/B/ G/B/e/B/ | A/B/e/B/ F/B/e/B/ A/B/e/B/ | eB BE FB, | %87
 EB, B,E A,F, | E,"^rit."A Bc de | !arpeggio![DABf]6 | !arpeggio![GBe]4 z2 |] %91
V:2
 E,6- | E,6 | E,6- | E,6 | C4 !4!B,2 | !0!A,4 G,2 | F, z z4 | z4 B,2 | E,6- | E,6 | !3!D z z4 | %11
 G,6 | !3!C4 z2 | ^^F,2 z4 | z G, G,D (CE) | G4 z2 | x6 | x6 | x6 | F4 z2 | x6 | x6 | z4 z F | x6 | %24
 x6 | x4 z z | !1!C2 z4 | x6 | x6 | x6 | x6 | E,6 | z A, A,2 A,2 | z =D D2 D2 | z =G G2 G2 | %35
 z C C2 C2 | z F F2 F2 | z B, B,2 B,2 | z E E2 E2 | z ^A, A,2 A,2 | z B, B,2 B,2 | x6 | x6 | x6 | %44
 z4 =G,2 | =C6 | z =C C2 B,2 | A,6 | z4 B,2 | E,6 | z E, E,2 =D2 | z =C C2 C2 | z =C C2 B,2 | %53
 z A, A,2 ^A,2 | B,4 z2 | E,6- | E,6 | E,6- | E,6 | C6 | F6 | x6 | F,2 z4 | x6 | z4 A,2 | %65
 G,3 G, z G, | A,3 A, z A, | B,3 B, z B, | C3 C z C | D3 D z D | E2 A2 d2 | D2 G2 c2 | C2 F2 B2 | %73
 E2 A,2 B,2 | z z z4 | E,6- | E,6 | E,6 | E,6 | E,6 | E,6 | E,6 | E,6 | z6 | B2 F2 G2 | A2 F2 A2 | %86
 E,6 | x6 | E,6 | E,2 .B,2 .B,2 | E,4 z2 |] %91

